X:1
T:Spinnliedchen
T:SPINNLIEDCHEN.
T:Albert Ellmenreich.
T:Public Domain 
T:Public Domain 
T:Public Domain 
Z:Public Domain
Z:
%%score { ( 1 3 ) | 2 }
L:1/8
Q:1/4=120
M:2/4
K:F
V:1 treble nm="PIANO."
V:3 treble 
V:2 bass 
V:1
"^Allegretto."!p! z4 | z4 |"^legg." (A,/B,/C/D/ C)!>![A,F]- | [A,F].[CG] [FA]2 | %4
 (A,/B,/C/D/ C)!>![A,CF]- | [A,CF].[B,CE] [A,CF]2 | (A,/B,/C/D/ C)!>![A,F]- | [A,F].[CG] [FA]2 | %8
 (A,/B,/C/D/ C)!>![A,CF]- | [A,CF].[B,CE] [A,CF]2 |"_cresc." z .[EG]z.[F_A] | z .[^F=A]z.[GB] | %12
 .[Bd].[Ac].[GB].[=FA] | .[EG]!f!!>![FG=B] !>![EGc] z |!p! z"_cresc." .[EG]z.[F_A] | %15
 z .[^F=A]z.[GB] | .[Bd].[Ac].[GB].[=FA] | [EG]2[Q:1/4=100] z2 | %18
[Q:1/4=120]"^a tempo."!p! (A,/B,/C/D/ C)!>![A,F]- | [A,F].[CG] [FA]2 | (A,/B,/C/D/ C)!>![A,CF]- | %21
 [A,CF].[B,CE] [A,CF]2 | (A,/B,/C/D/ C)!>![A,F]- | [A,F].[CG] [FA]2 | (A,/B,/C/D/ C)!>![A,CF]- | %25
 [A,CF].[B,CE] .[A,CF] z |!p! [_EF][EF][EF][EF] | [_EF][EF][EF][EF] | [DF][DF][DF][DF] | %29
 [DF][DF][DF][DF] | [_EF][EF][EF][EF] | [_EF][EF][EF][EF] |!>(! [DF][DF][DF]!>)![DF] | %33
!<(! [DF][DF][F_A][FA]!<)! |!p! [FG][FG][FG][FG] | [_EG][EG][EG][E_G] | [_EF][EF][EF][EF] | %37
 [DF][DF][DF][DF] | [CD^F][CDF][CDF][CDF] | [B,DG]!<(![B,DG][D=F][DF] | [D=E][DE][DE][DE]!<)! | %41
 [^CE]!p!EEE | !>![Ee]3 (d/=B/ | ^c) z z2 | !>!=B3 (^G/E/ | A) z z2 | !>![Ee]3 (d/=B/ | ^c) z z2 | %48
 !>!=B3 (^G/E/ | A).A"_cresc."z._B | z .=G z .=c | z4 | z4 |"^legg." (A,/B,/C/D/ C)!>![A,F]- | %54
 [A,F].[CG] [FA]2 | (A,/B,/C/D/ C)!>![A,CF]- | [A,CF].[B,CE] [A,CF]2 | (A,/B,/C/D/ C)!>![A,F]- | %58
 [A,F].[CG] [FA]2 | (A,/B,/C/D/ C)!>![A,CF]- | [A,CF].[B,CE] [A,CF]2 | z .[EG]"_cresc."z.[F_A] | %62
 z .[^F=A]z.[GB] | .[Bd].[Ac].[GB].[=FA] | .[EG]!f!!>![FG=B] !>![EGc] z | %65
!p! z"_cresc." .[EG]z.[F_A] | z .[^F=A]z.[GB] | .[Bd].[Ac].[GB].[=FA] | %68
!>(! [EG]2[Q:1/4=100] z2!>)! |!p![Q:1/4=120]"^a tempo." (A,/B,/C/D/ C)!>![A,F]- | %70
 [A,F].[CG] [FA]2 | (A,/B,/C/D/ C)!>![A,CF]- | [A,CF].[B,CE] [A,CF]2 | (A,/B,/C/D/ C)!>![A,F]- | %74
 [A,F].[CG] [FA]2 | (A,/B,/C/D/ C)!>![A,CF]- | [A,CF].[B,CE] [CF]2- | [CF](D/E/) F2- | %78
 F(D/E/) F(D/E/) |!<(! [A,F]4- | [A,F]4- | [A,F]2!<)! z2 |] %82
V:2
 .F,,.C,.F,,.C, | .F,,.C,.F,,.C, | .F,,.C,.F,,.C, | .F,,.C,.F,,.C, | .F,,.C,.F,,.C, | %5
 .F,,.C,.F,,.C, | .F,,.C,.F,,.C, | .F,,.C,.F,,.C, | .F,,.C,.F,,.C, | .F,,.C,.F,,.C, | %10
 .C,,.C,.C,,.C, | .C,,.C,.C,,.C, | .C,,.C,.C,,.C, | .C,,.C,.C,,.C, | .C,,.C,.C,,.C, | %15
 .C,,.C,.C,,.C, | .C,,.C,.C,,.C, | C,,2 z2 | .F,,.C,.F,,.C, | .F,,.C,.F,,.C, | .F,,.C,.F,,.C, | %21
 .F,,.C,.F,,.C, | .F,,.C,.F,,.C, | .F,,.C,.F,,.C, | .F,,.C,.F,,.C, | .F,,.C,.F,, z | %26
 !>!C3 (A,/F,/ | C) z z2 | !>!B,3 (A,/G,/ | F,) z z2 | !>!C3 (A,/F,/ | C) z z2 | %32
 (B,2- B,/A,/B,/A,/) | F, z z2 | !>!D3 (=B,/G,/ | C) z z2 | !>!C3 (A,/F,/ | B,) z z2 | %38
 !>!A,3 (^F,/D,/ | G,)"^cresc." z A,2 | B,2 ^G,2 | A, z z2 | E,[^G,D][G,D][G,D] | %43
 E,[A,^C][A,C][A,C] | E,[=B,D][B,D][B,D] | E,[A,^C][A,C][A,C] | E,[^G,D][G,D][G,D] | %47
 E,[A,^C][A,C][A,C] | E,[=B,D][B,D][B,D] | [A,^C] z .[_B,,_B,] z | .[=G,,=G,] z .[=C,=C] z | %51
!p! .F,,.C,.F,,.C, | .F,,.C,.F,,.C, | .F,,.C,.F,,.C, | .F,,.C,.F,,.C, | .F,,.C,.F,,.C, | %56
 .F,,.C,.F,,.C, | .F,,.C,.F,,.C, | .F,,.C,.F,,.C, | .F,,.C,.F,,.C, | .F,,.C,.F,,.C, | %61
 .C,,.C,.C,,.C, | .C,,.C,.C,,.C, | .C,,.C,.C,,.C, | .C,,.C,.C,,.C, | .C,,.C,.C,,.C, | %66
 .C,,.C,.C,,.C, | .C,,.C,.C,,.C, | C,,2 z2 | .F,,.C,.F,,.C, | .F,,.C,.F,,.C, | .F,,.C,.F,,.C, | %72
 .F,,.C,.F,,.C, | .F,,.C,.F,,.C, | .F,,.C,.F,,.C, | .F,,.C,.F,,.C, | .F,,.C,.F,,.C, | %77
 .F,,.C,.F,,.C, | .F,,.C,.F,,.C, | F,,F,"^rit."E,F, | C,F,A,,C, | F,,2 z2 |] %82
V:3
 x4 | x4 | x4 | x4 | x4 | x4 | x4 | x4 | x4 | x4 | x4 | x4 | x4 | x4 | x4 | x4 | x4 | %17
 z"_poco riten."!>(! (C=B,!>)!_B,) | x4 | x4 | x4 | x4 | x4 | x4 | x4 | x4 | x4 | x4 | x4 | x4 | %30
 x4 | x4 | x4 | x4 | x4 | x4 | x4 | x4 | x4 | x4 | x4 | x4 | x4 | x4 | x4 | x4 | x4 | x4 | x4 | %49
 x4 | x4 | x4 | x4 | x4 | x4 | x4 | x4 | x4 | x4 | x4 | x4 | x4 | x4 | x4 | x4 | x4 | x4 | x4 | %68
 z"_poco rit." (C=B,_B,) | x4 | x4 | x4 | x4 | x4 | x4 | x4 | x2 A,2- | A,B, A,2- | A,B, A,B, | %79
 x4 | x4 | x4 |] %82

